X:1
T:Title
%%score { 1 | 2 }
L:1/8
M:3/4
K:Ab
V:1 treble nm="Grand Piano"
V:2 bass 
V:1
 z2 z[Q:1/4=92] [CE] [CE][CE] | [CA]3 [EA] [DG][CA] | B3 E EE | B3 [EB] [EA]B |[M:3/8] c3 | EEE | %6
[M:3/4] c3 [Ec] [EB][_GA] | [Fd]4 [Fd]2 | cB AG FG |[M:3/8] [CA]3 | ccd |[M:3/4] e3 c AB | %12
 c3 [Ec] [Ec][Ec] | [=Dc]3 [DB] [DA][Dc] |[M:3/8] B3 | ccd |[M:3/4] e3 [Ec] [EB][_GA] | %17
 [Fd]4 [Fd]2 | cB AG FG[Q:1/4=89][Q:1/4=86][Q:1/4=83][Q:1/4=81][Q:1/4=78][Q:1/4=75][Q:1/4=72] | %19
[M:3/8] [CA]3 |] %20
V:2
 z2 z [A,,A,] [A,,A,][A,,A,] | [A,,E,]3 [C,E,] [B,,E,][A,,A,] | [E,G,E]3 [E,G,] [E,G,][E,G,] | %3
 [E,G,E]3 [D,G,] [C,A,][E,G,E] |[M:3/8] [A,E]3 | [A,C][A,C][A,C] | %6
[M:3/4] [A,E]3 [A,,A,] [B,,G,][C,A,] | [D,A,]4 [D,A,]2 | %8
 [E,A,E][E,DE] [E,CE][E,B,E] [E,B,D][E,B,D] |[M:3/8] [A,,A,]3 | [A,E][A,E][A,B,E] | %11
[M:3/4] [A,CA]3 [A,E][K:bass] [A,C][A,D] | [A,E]3 [A,,A,] [A,,A,][A,,A,] | %13
 [B,,F,]3 [B,,F,] [B,,F,][B,,A,] |[M:3/8] [E,G,E]3 | [A,E][A,E][A,B,E] | %16
[M:3/4] [A,CA]3[K:bass] [A,,A,] [B,,G,][C,A,] | [D,A,]4 [D,A,]2 | %18
 [E,A,E][E,DE] [E,CE][E,B,E] [E,B,D][E,B,D] |[M:3/8] [A,,A,]3 |] %20

